X:1
T:6 Lieder, Op.5
T:Botschaft
T:1. Botschaft
T:Peter Cornelius
T:Peter Cornelius
T:6 Lieder, Op.5
T:Creative Commons copyright waiver (CC0 1.0 Universal) 
T:Creative Commons copyright waiver (CC0 1.0 Universal) 
T:Creative Commons copyright waiver (CC0 1.0 Universal) 
C:Peter Cornelius
Z:Peter Cornelius
Z:Creative Commons copyright waiver (CC0 1.0 Universal)
Z:
L:1/8
M:6/8
K:D
V:1 treble nm="Voice" snm="Vo."
V:1
 z6 | z6 | z6 | z6 | z6 | z6 | z6 | z6 | z6 | z2 z FGF | B2 z GGF | E2 z GGF | c2 ^A F2 F | %13
w: |||||||||Lie- ben- des|Wort, dich send' ich|fort! su- che dir|dort am Rhei- nes-|
 d2 B FG^G | A2 B A2 =G | F2 z DCD | A3 DCD | d3 GFG | =c2 c AFD | D2 G GF^E | B2 B D2 =E | %21
w: stran- de, su- che dir|dort den schön- sten|Ort. Lie- ben- der|Mut, der nim- mer|ruht, kühl' in der|Flut am Rhei- * nes-|stran- de, kühl' in der|Flut der Sehn- sucht|
 F2 z F^GF |[K:B] B3 GGF | ^E2 z c^B=B | A2 G FG/A/B/c/ | d2 B GAB | e2 c AGF | F3 BAB | %28
w: Glut! Lie- ben- der|Sinn wo ich auch|bin, flie- ge mit|hin zum Rhei * * nes- *|stran- de, flie- ge mit|hin, ihr Herx * ge-|winn, flie- ge mit|
 B2 C E2 G | A3- AFc |[K:D] B3 z2 z | z2 z FGF | B2 z GGF | E2 z GGF | c2 ^A F2 F | d2 B FG^G | %36
w: hin * ihr *|Herz * * ge-|winn!|Lie- ben- der|Sang, tö- ne nicht|bang, dir zum Em-|pfang am Rhei- nes-|stran- de, dir zum Em-|
 A2 B A2 =G | F2 z DCD | A3 DCD | d3 GFG | =c2 c AFD | D2 G DF^E | B2 B D2 =E | F2 z F^GF | %44
w: pfang tönt süs- ser|Klang! Lie- ben- der|Brust wer- de be-|wusst, wie je- de|Lust am Rhei- * nes-|stran- de, wie je- de|Lust ich mis- sen|musst. Lie ben- der|
[K:B] B3 GGF | ^E3 c^B=B | A2 G FG/A/B/c/ | d2 B GAB | e2 c AGF | F3 BAB | B2 C E2 G | A3- AFc | %52
w: Drang folg' ich so|lang, bis ich er-|rang am Rhei * * nes- *|stran- de, bis ich er-|rang dein Ziel, * mein|Sang, bis ich er|rang * dein *|Ziel, * mein *|
 B3 z2 z | z6 | z6 | z6 | z6 | z6 | z6 | z6 | z6 | z6 |] %62
w: Sang!||||||||||

